resources/svg/major-theme-edit.svg

<svg xmlns="http://www.w3.org/2000/svg" viewBox="0 0 20 20" fill="currentColor"><path fill-rule="evenodd" d="M0 1.5a1.5 1.5 0 0 1 1.5-1.5h5a1.5 1.5 0 0 1 1.5 1.5v.5h5a1 1 0 1 1 0 2h-5v1.5a1.5 1.5 0 0 1-1.5 1.5h-1.5v2h-2v-2h-1.5a1.5 1.5 0 0 1-1.5-1.5v-4zm2 3.5v-3h4v3h-4z"/><path d="M5 17v1h1v2h-1.5a1.5 1.5 0 0 1-1.5-1.5v-1.5h2zm-2-3v-3h2v3h-2zm9 6h-4v-2h4v2zm2-2h1v-1h2v1.5a1.5 1.5 0 0 1-1.5 1.5h-1.5v-2zm2.907-13.159 2.252 2.252.375-.376a1.592 1.592 0 0 0-2.252-2.25l-.375.374zm1.218 3.283-2.251-2.251-7.143 7.143-.731 2.984 2.982-.731 7.143-7.144z"/></svg>

<svg xmlns="http://www.w3.org/2000/svg" viewBox="0 0 20 20" fill="currentColor"><path fill="#5C5F62" fill-rule="evenodd" d="M0 1.5A1.5 1.5 0 011.5 0h5A1.5 1.5 0 018 1.5V2h5a1 1 0 110 2H8v1.5A1.5 1.5 0 016.5 7H5v2H3V7H1.5A1.5 1.5 0 010 5.5v-4zM2 5V2h4v3H2z"/><path fill="#5C5F62" d="M5 17v1h1v2H4.5A1.5 1.5 0 013 18.5V17h2zM3 14v-3h2v3H3zM12 20H8v-2h4v2zM14 18h1v-1h2v1.5a1.5 1.5 0 01-1.5 1.5H14v-2zM16.907 4.841l2.252 2.252.375-.376a1.592 1.592 0 00-2.252-2.25l-.375.374zM18.125 8.124l-2.251-2.251-7.143 7.143L8 16l2.982-.731 7.143-7.144z"/></svg>
